X: 3
T: The Queen Of May
R: reel
M: 4/4
L: 1/8
K: Edor
|:dcdf e2dB|AD (3(FED) FA A2|Bddf edBc|dBAF BE E2:||
Beef {a}gfge|^defg afdf|e^def {a}g2fe|dBAF BE E2|
Beef {a}gfge|^defg afdf|(g/2a/2g/2f/2g).e (f/2g/2f/2e/2f).e|dBAF BE E2|]


Tune 2518	Setting 2518

